source/svgs/bowtie/uE97F-print.svg

<svg xmlns="http://www.w3.org/2000/svg" viewBox="0 0 448 448" enable-background="new 0 0 448 448"><path d="M448 240c0-26.5-21.5-48-48-48h-48v-192h-256v192h-48c-26.5 0-48 21.5-48 48v144h96v64h256v-64h96v-144zm-320-208h192v160h-192v-160zm192 384h-192v-64h192v64zm96-64h-64v-32h-256v32h-64v-112c0-8.8 7.2-16 16-16h352c8.8 0 16 7.2 16 16v112zm-352-96h32v32h-32v-32z"/></svg>

<svg xmlns="http://www.w3.org/2000/svg" viewBox="0 0 448 448"><path d="M448 240c0-26.5-21.5-48-48-48h-48V0H96v192H48c-26.5 0-48 21.5-48 48v144h96v64h256v-64h96V240zM128 32h192v160H128V32zm192 384H128v-64h192v64zm96-64h-64v-32H96v32H32V240c0-8.8 7.2-16 16-16h352c8.8 0 16 7.2 16 16v112zM64 256h32v32H64v-32z"/></svg>
